images/products-tubs-icon-7.svg

<svg width="18" height="18" viewBox="0 0 18 18" fill="none" xmlns="http://www.w3.org/2000/svg">
<path d="M16.9677 7.94951L15.8344 6.63285C15.6177 6.38285 15.4427 5.91618 15.4427 5.58281V4.16615C15.4427 3.28281 14.7177 2.55781 13.8344 2.55781H12.4177C12.0927 2.55781 11.6177 2.38281 11.3677 2.16615L10.051 1.03281C9.47604 0.541146 8.53438 0.541146 7.95104 1.03281L6.64271 2.17448C6.39271 2.38281 5.91771 2.55781 5.59271 2.55781H4.15104C3.26771 2.55781 2.54271 3.28281 2.54271 4.16615V5.59115C2.54271 5.91618 2.36771 6.38285 2.15937 6.63285L1.03438 7.95785C0.551042 8.53285 0.551042 9.46618 1.03438 10.0412L2.15937 11.3662C2.36771 11.6162 2.54271 12.0828 2.54271 12.4078V13.8328C2.54271 14.7161 3.26771 15.4412 4.15104 15.4412H5.59271C5.91771 15.4412 6.39271 15.6162 6.64271 15.8328L7.95937 16.9662C8.53438 17.4578 9.47604 17.4578 10.0594 16.9662L11.376 15.8328C11.626 15.6162 12.0927 15.4412 12.426 15.4412H13.8427C14.726 15.4412 15.451 14.7161 15.451 13.8328V12.4162C15.451 12.0912 15.626 11.6162 15.8427 11.3662L16.976 10.0495C17.4594 9.47451 17.4594 8.52451 16.9677 7.94951ZM12.901 8.99951L11.926 11.9662C11.801 12.4578 11.276 12.8578 10.7427 12.8578H9.20104C8.93437 12.8578 8.55937 12.7662 8.39271 12.5995L7.16771 11.6412C7.14271 12.1745 6.90104 12.3995 6.30937 12.3995H5.90938C5.29271 12.3995 5.04271 12.1578 5.04271 11.5745V7.59118C5.04271 7.00785 5.29271 6.76618 5.90938 6.76618H6.31771C6.93437 6.76618 7.18437 7.00785 7.18437 7.59118V7.89118L8.80104 5.49115C8.96771 5.23281 9.39271 5.04948 9.75104 5.19115C10.1427 5.32448 10.3927 5.75785 10.3094 6.14118L10.1094 7.44118C10.0927 7.55785 10.1177 7.66618 10.1927 7.74951C10.2594 7.82451 10.3594 7.87451 10.4677 7.87451H12.0927C12.4094 7.87451 12.676 7.99951 12.8344 8.22451C12.976 8.44111 13.001 8.71618 12.901 8.99951Z" fill="black"/>
</svg>

<svg width="18" height="18" fill="none" xmlns="http://www.w3.org/2000/svg"><path d="M16.968 7.95l-1.134-1.317a1.847 1.847 0 01-.391-1.05V4.166c0-.883-.725-1.608-1.609-1.608h-1.416c-.325 0-.8-.175-1.05-.392L10.05 1.033c-.575-.492-1.517-.492-2.1 0L6.643 2.174c-.25.209-.725.384-1.05.384H4.15c-.883 0-1.608.725-1.608 1.608v1.425c0 .325-.175.792-.384 1.042L1.034 7.958c-.483.575-.483 1.508 0 2.083l1.125 1.325c.209.25.384.717.384 1.042v1.425c0 .883.725 1.608 1.608 1.608h1.442c.325 0 .8.175 1.05.392l1.316 1.133c.575.492 1.517.492 2.1 0l1.317-1.133c.25-.217.717-.392 1.05-.392h1.417c.883 0 1.608-.725 1.608-1.608v-1.417c0-.325.175-.8.392-1.05l1.133-1.316c.483-.575.483-1.525-.008-2.1zM12.9 9l-.975 2.966c-.125.492-.65.892-1.183.892H9.2c-.267 0-.642-.092-.808-.258l-1.225-.959c-.025.534-.267.758-.859.758h-.4c-.616 0-.866-.241-.866-.824V7.59c0-.583.25-.825.866-.825h.409c.616 0 .866.242.866.825v.3L8.8 5.49c.167-.258.592-.442.95-.3.392.133.642.567.558.95l-.2 1.3a.368.368 0 00.084.309.372.372 0 00.275.125h1.625c.316 0 .583.125.741.35.142.216.167.491.067.775z" fill="#000"/></svg>
